!!!COM: Martinů, Bohuslav (Jan)
!!!OTL: String Quartet No. 2
!!!OMV: II: Andante - Moderato
!!!example: 506
!!!work: Mau-11
**kern	**dynam	**kern	**dynam	**kern	**dynam	**kern	**dynam
*part4	*part4	*part3	*part3	*part2	*part2	*part1	*part1
*staff4	*	*staff3	*	*staff2	*	*staff1	*
*I"Violoncello	*	*I"Viola	*	*I"Violin II	*	*I"Violin I	*
*I'Vc.	*	*I'Vla.	*	*I'Vln. II	*	*I'Vln. I	*
*clefF4	*	*clefC3	*	*clefG2	*	*clefG2	*
*k[]	*	*k[]	*	*k[]	*	*k[]	*
*C:	*	*C:	*	*C:	*	*C:	*
*M3/4	*	*M3/4	*	*M3/4	*	*M3/4	*
=61	=	=	=	=	=	=	=
2GG	.	2G	.	(8cc~L	>	(4aa	.
.	.	.	.	8b~J)	.	.	.
.	.	.	.	4a	.	2gg)	.
4r	.	4r	.	(4g^	]	.	.
*	*	*clefG2	*	*	*	*	*
=62	=62	=62	=62	=62	=62	=62	=62
*M5/4	*	*M5/4	*	*M5/4	*	*M5/4	*
4r	.	4r	.	2cc^) 2ee	.	2.ggg	.
4G~	f	4g~	f	.	.	.	.
4G~	.	4g~	.	4g~^ 4dd	]	.	.
(8F^L 8A	.	(8f^L 8a	.	4cc~^ 4ee	.	[2ggg	.
8GJ)	.	8gJ)	.	.	.	.	.
4G	.	4g	.	4a~^ 4gg	.	.	.
=63	=63	=63	=63	=63	=63	=63	=63
*M6/4	*	*M6/4	*	*M6/4	*	*M6/4	*
8FL 8A	<	8fL 8a	<	4g^ 4dd	.	2.ggg]	.
8EJ 8B	.	8eJ 8b	.	.	.	.	.
4D^ 4c	[	4d^ 4cc	[	4cc^ 4ee	.	.	.
(8EL 8B	.	(8eL 8b	.	4g^ 4dd	.	.	.
8GJ)	.	8gJ)	.	.	.	.	.
4F^ 4A	.	4f^ 4a	.	4cc^ 4ee	.	[2.ggg	.
2G	.	2g	.	4a^ 4gg	.	.	.
.	.	.	.	4g^ 4dd	]]	.	.
=64	=64	=64	=64	=64	=64	=64	=64
*M5/4	*	*M5/4	*	*M5/4	*	*M5/4	*
4D 4d	.	4d 4dd	.	8cc 8ee	]	2ggg]	.
.	.	.	.	4g 4dd	.	.	.
4E 4d	<	4e 4dd	<	.	.	.	.
.	.	.	.	8a 8gg	.	.	.
4G 4d	.	4g 4dd	.	4cc 4ee	.	[2.gggT	.
(8DL 8c	[	(8dL 8cc	[	8gL 8dd	.	.	.
8AAJ)	.	8AJ)	.	8aJ 8gg	.	.	.
4G 4d	.	4g 4dd	.	4cc 4ee	.	.	.
=65	=65	=65	=65	=65	=65	=65	=65
!!linebreak:original
*M3/4	*	*M3/4	*	*M3/4	*	*M3/4	*
8GG^L 8A 8e	.	8G^L 8a 8ee	.	8g 8dd	<	2.ggg]	[[
8cJ	.	8ccJ	.	4cc 4ee	.	.	.
2G^ 2d	.	2g^ 2dd	.	.	.	.	.
.	.	.	.	8a 8gg	.	.	.
.	.	.	.	8bL 8ff	.	.	.
.	.	.	.	8aJ 8gg	[[	.	.
=66	=66	=66	=66	=66	=66	=66	=66
4AA^ 4E 4c	sfz	4A^ 4e 4cc	sfz	8ccL 8ee	[	4ggg~	[
.	.	.	.	8aJ 8ee	.	.	.
2GG^ [2D [2B	sfz	2G^ [2d [2b	sfz	8cc 8ee	.	4aaa~	.
.	.	.	.	4g 4dd	.	.	.
.	.	.	.	.	.	[4ggg~	.
.	.	.	.	8a 8gg	.	.	.
=67	=67	=67	=67	=67	=67	=67	=67
2.D_ 2.B_	.	2.d_ 2.b_	.	4cc 4ee	.	4ggg]	.
.	.	.	.	8gL 8dd	.	(8fff~L	.
.	.	.	.	8aJ 8gg	.	8eee~J)	.
.	.	.	.	4cc 4ee	[[	4ddd	.
=68	=68	=68	=68	=68	=68	=68	=68
2D] 2B]	ff	2d] 2b]	ff	8g^L 8dd	[	(8eeeL	.
.	.	.	.	8aJ 8gg	.	8cccJ)	.
.	.	.	.	8ccL 8ee	.	4ddd	<
.	.	.	.	8g^J 8dd	.	.	.
[4AA^ [4E [4c	sfz	[4A^ [4e [4cc	sfz	8aL 8gg	.	[4ggg^	[
.	.	.	.	([8ccJ [8ee	.	.	.
=69	=69	=69	=69	=69	=69	=69	=69
4AA] 4E] 4c]	.	4A] 4e] 4cc]	.	8ccL] 8ee]	.	4ggg]	.
.	.	.	.	8gJ) 8dd	.	.	.
2GG^ [2D [2B	sfz	2G^ [2d [2b	sfz	8dL 8cc	.	(4ggg^	.
.	.	.	.	8gJ 8dd	.	.	.
.	.	.	.	8aL 8gg	.	8fff~L	.
.	.	.	.	(8ccJ 8ee	.	8eee~J)	.
=70	=70	=70	=70	=70	=70	=70	=70
2.D] 2.B]	[[	2.d] 2.b]	[[	8gL) 8dd	.	4ddd	.
.	.	.	.	8dJ 8cc	.	.	.
.	.	.	.	8gL 8dd	<	(8eeeL	<
.	.	.	.	8aJ 8gg	.	8cccJ)	.
.	.	.	.	(8ccL 8ee	.	(8ccc~L	.
.	.	.	.	8gJ) 8dd	[	[8ddd~J)	[[
==	==	==	==	==	==	==	==
*-	*-	*-	*-	*-	*-	*-	*-
!!!CDT: 1890/12/08-1959/08/28
!!!CBL: Polička, Bohemia
!!!CDL: Liestal, Switzerland
!!!CNT: Czech
!!!AGN: Instrumental; Chamber
!!!MCN:
!!!MDT: 1925/11/12
!!!MGN: Novák-Frank Quartet
!!!MLC: Berlin, Germany
!!!MPD: 1925
!!!MPN:
!!!ODT: 1925
!!!PDT: 1927
!!!excerpt-start-measure: 61
!!!excerpt-end-measure: 69
!!!excerpt-start-time: 3:37
!!!excerpt-end-time: 3:56
!!!EEV: 2020/01/17
!!!system-decoration: [(s1,s2,s3,s4)]
!!!ONB: Converted from MusicXML on 2020/01/17
